Adwaita++/actions/22/transaction-report.svg

<svg height="22" width="22" xmlns="http://www.w3.org/2000/svg">
  <g fill="#444">
    <path d="m7 10-4 3.239999 4 3.760001v-2.02h2.0626397c.9771093 0 1.8409673.628812 2.1029083 1.44.313293.9702-1.029082 2.58-1.029082 2.58s2.863534-.88 2.863534-3.220001c0-2.248919-1.431767-3.779999-3.5794184-3.779999h-2.4205816z"/>
    <path d="m15 12 4-3.239999-4-3.760001v2.02h-2.06264c-.977109 0-1.840967-.628812-2.102908-1.44-.313293-.9702 1.029082-2.58 1.029082-2.58s-2.863534.88-2.863534 3.220001c0 2.248919 1.431767 3.779999 3.579418 3.779999h2.420582z"/>
    <path d="m17.5 13a3.5 3.5 0 0 0 -3.5 3.5 3.5 3.5 0 0 0 3.5 3.5 3.5 3.5 0 0 0 3.5-3.5 3.5 3.5 0 0 0 -3.5-3.5zm-1.5 1h3v3h-1.292969l1.292969 1.292969v.707031h-.707031l-1.292969-1.292969v1.292969h-1v-2-1-1zm1 1v1h1v-1z"/>
  </g>
</svg>

<svg xmlns="http://www.w3.org/2000/svg" width="22" height="22" version="1.1">
 <defs>
  <style id="current-color-scheme" type="text/css">
   .ColorScheme-Text { color:#444444; } .ColorScheme-Highlight { color:#4285f4; }
  </style>
 </defs>
 <path style="fill:currentColor" class="ColorScheme-Text" d="M 7,10 3,13.239999 7,17 v -2.02 h 2.0626397 c 0.9771093,0 1.8409673,0.628812 2.1029083,1.44 C 11.478841,17.3902 10.136466,19 10.136466,19 10.136466,19 13,18.12 13,15.779999 13,13.53108 11.568233,12 9.4205816,12 H 7 Z"/>
 <path style="fill:currentColor" class="ColorScheme-Text" d="M 15,12 19,8.760001 15,5 V 7.02 H 12.93736 C 11.960251,7.02 11.096393,6.391188 10.834452,5.58 10.521159,4.6098 11.863534,3 11.863534,3 11.863534,3 9,3.88 9,6.220001 9,8.46892 10.431767,10 12.579418,10 H 15 Z"/>
 <path style="fill:currentColor" class="ColorScheme-Text" d="M 17.5,13 A 3.5,3.5 0 0 0 14,16.5 3.5,3.5 0 0 0 17.5,20 3.5,3.5 0 0 0 21,16.5 3.5,3.5 0 0 0 17.5,13 Z M 16,14 h 3 v 3 H 17.707031 L 19,18.292969 V 19 H 18.292969 L 17,17.707031 V 19 h -1 v -2 -1 -1 z m 1,1 v 1 h 1 v -1 z"/>
</svg>
